!!!OTL: 279. Das Kirchlein.
!!!ARE: Europa, Mitteleuropa, Deutschland
!!!SCT: B0279
!!!TXL: @@DE
!!!YEM: Copyright 1995, estate of Helmut Schaffrath.
**kern	**text
*ICvox	*
*Ivox	*
*M4/4	*
*met(c)	*
*clefG2	*
*k[b-e-a-d-]	*
*A-:	*
!LO:TX:a:t=Etwas langſam. 	!
{4e-	Ein
=1	=1
4.cc	Kirch-
8cc	-lein
4cc	ſteht
4b-	im
=2	=2
(<4.b-	Blau-
8a-)	.
4a-}	-en
{4e-	auf
=3	=3
4dd-	ſtei-
4dd-	-len
8dd-L	Ber-
8ccJ	.
8ee-L	-ges
8ccJ	.
=4	=4
2b-	Höh';
4r}	.
{4e-	und
=5	=5
4.ee-	mit
8ff	wird
4ee-	bei
4dd-	Be-
=6	=6
2cc	-ſchau-
8ee-L	-en
8dd-J}	.
{8ccL	des
8b-J	.
=7	=7
4.a-	Kirch-
8a-	-leins
8cc/L	wohl
8b-J	.
8a-L	und
8gJ	.
=8	=8
2a-}	weh',
{2b-^	des
=9	=9
4cc	Kirchleins
4cc	.
8ee-L	wohl
8dd-J	.
8b-L	und
8ccJ	.
=10	=10
2a-	weh'.
4r}	.
==	==
!!!AGN: Stimmungs - Lied, Andacht
!!!GTL: Trauerlieder (Elegien) und Stimmungslieder
!!!ONB: ESAC (Essen Associative Code) Database: BOEHME
!!!AMT: simple quadruple
!!!AIN: vox
!!!EED: Helmut Schaffrath
!!!EEV: 1.0
!!!RDF**kern: < = below
!!Volksmelodie: "Ach Mutter, liebe Mutter".
!!@@COMMENT:"Gedicht von Wilh. Kilʒer 1824. Viel ſpäter gedruckt in deſſen "Feierklänge" 1844, S. 72.
!!Sehr verbreitet iſt der gelungene Männerchor ʒu dieſem Texte, komponirt von V. E. Becker. Sonſt
!!auch von anderen komponirt. Auch von Joſ. Gersbach (4 1832) komponirt."
!!@@END:
!!!Text: W. Kilzer
!!!URL-scan: https://archive.org/details/BoehmeVtLieder1895/page/n237/mode/2up
!!!ENC: Anna Maria Matuszewska
!!!EEV: 2024/03/07
*-	*-
